X:23
T:Sing and Be Merry. WR1776.23
B:Wm.Randall CDs 1776
Z:vmp.Steve Mansfield 2015
M:2/4
L:1/8
W:Cast off 1 Cu. lead thro' the bott: cast up lead thro' the top
W:cast off foot it corners & turn hands three top & bottom then
W:the Gent: at top and the Lady at bottom foot it to your Partner
W:and turn right & left at top
Q:2/4=60
K:D
d/c/d/e/ df | a2gf | gedc | d/c/d/e/ dA |
d/c/d/e/ df | a2gf | gedc | d2 D2 :|
|: A/G/A/B/ AA | B/A/B/c/ Bd | efge | e/f/d/e/ cA |
d/c/d/e/ f/e/f/g/ | a/g/f/e/ d/c/B/A/ | BgAc | d2 D2 :|

